X:27
T:Shepherds' Hey
S:Bacon (MDT)
A:Bampton
O:English
R:Reel
M:2/2
P:AA6B3(AB3)2A
K:G
P:A
D | GBdB c2 c2 | BcdB A2 A2 | GBdB c2 Bc | d2 D2 G3 :|
P:B
A | B2 G2 c3 d/c/ | B2 G2 A4 | GB dB c2 Bc | d2 df g2 a/g/f/e/ |
d2 B2 c3 d/c/ | B2 G2 A4 | GBdB c2 Bc | d2 D2 G3 |]
